public/avatar/item0/50.svg

<svg xmlns:xlink="http://www.w3.org/1999/xlink" height="58.65" width="49.15" xmlns="http://www.w3.org/2000/svg"><use height="18.8" transform="translate(8.95 12.3)" width="30.3" xlink:href="#a"/><defs><g id="a"><path d="M28.55 17.05q.15-1.95-.05-3.95l.7-1.35q.35-1.2-.6-2.85-.8-2-2.85-4.8-.9-1.2-4.3-2.15Q18.1 1 14.85 1l-.05.1-.05-.1q-3.25 0-6.5.95-3.25.9-4.2 2.15-2.35 3.25-2.7 5.5-.55 1.2-.25 2.15l.2.5-.3 5.3" fill="none" stroke="#394200" stroke-linecap="round" stroke-linejoin="round" stroke-width="2"/><path d="m-9.2-1.6-.6.5q-.9.9-1.5 2.2l-.2.65q-.45 1.1-.1 1.55l2.4-.9v-.1l2.55-.85q4.7-1.55 6.5-1.6H0q1.8.05 6.5 1.6l2.85.95.1.2 1 .1.55.05h.35l-.05-.1.1-.15.1-.35q-.1-1.1-.95-2.15l-.9-1.1Q7.15-3.6 0-3.6h-.35l-4.9.45q-2.6.45-3.8 1.4l-.15.15m-4.55 5.4.35-1.25q.85-2.25 2.3-4.25.95-1.25 4.2-2.15 3.25-.95 6.5-.95l.05.1.05-.1q3.25 0 6.6.95 3.4.95 4.3 2.15 3 4.05 3.35 5.7.25 1.4-1.3 1.1Q3.5 2.5.05 2.25q-2 .15-6.15 1.2l-6.55 1.65q-1.4.25-1.1-1.3" fill="#df0" fill-rule="evenodd" transform="translate(15.15 5.8)"/><path d="m-11.5 1.75.2-.65q.6-1.3 1.5-2.2l.6-.5q-1.25 1.1-2.05 2.7l-.25.65M0-3.6q7.15 0 9.65 2.5l.9 1.1-1.8-1.75Q7.4-2.8 3.4-3.3L.05-3.55 0-3.6m11.4 6.1-.1.15V2.6l.1-.1" fill="#fff" fill-rule="evenodd" transform="translate(15.15 5.8)"/><path d="m11.3 2.65.05.1h-.25l.2-.15v.05m-.3.1-.55-.05-1-.1-.1-.2Q8.35.6 7.6.25 4.65-1.1-1-1.1q-5.35 0-7.15 1.65-1.1 1-1.05 1.75v.1l-2.4.9.85-.4Q-9.05-.65-7.9-.85L-.3-2.1H0L7.6-.85q2 .35 3.4 3.6m-.55-.05.7.05-.7-.05" fill-rule="evenodd" transform="translate(15.15 5.8)"/><path d="m13.25 7.45.3 2.95q.2 2.85-.35 1.75L9.35 7.4l1-.35 2.45.7.45-.3m-23.85-.3.65.25-3.85 4.75q-.55 1.1-.35-1.75l.35-3.75 1 1.1 2.2-.6" fill="#a0ba06" fill-rule="evenodd" transform="translate(15.15 5.8)"/><path d="M13.95 4q.4 1 .1 1.95-.3.95-.8 1.5l-.45.3-2.45-.7Q4.55 5.2.2 5.1h-.4q-4.5.1-10.1 1.95l-.25.1h-.05l-2.2.6-1-1.1-.25-.7q-.25-.85.2-2l.1-.15q-.3 1.55 1.1 1.3l6.55-1.65Q-1.95 2.4.05 2.25q3.45.25 12.6 2.85 1.55.3 1.3-1.1" fill="#5f6e00" fill-rule="evenodd" transform="translate(15.15 5.8)"/><path d="m-9.2-1.6.15-.15q1.2-.95 3.8-1.4l4.9-.45H0l.05.05 3.35.25q4 .5 5.35 1.55L10.55 0q.85 1.05.95 2.15l-.1.35-.1.1-.2.15H11Q9.6-.5 7.6-.85L0-2.1h-.3L-7.9-.85q-1.15.2-2.85 3.75l-.85.4q-.35-.45.1-1.55l.25-.65q.8-1.6 2.05-2.7" fill="#8ba100" fill-rule="evenodd" transform="translate(15.15 5.8)"/><path d="M9.35 2.4 6.5 1.45Q1.8-.1 0-.15h-.15q-1.8.05-6.5 1.6l-2.55.85q-.05-.75 1.05-1.75Q-6.35-1.1-1-1.1q5.65 0 8.6 1.35.75.35 1.75 2.15" fill="#4b4b4b" fill-rule="evenodd" transform="translate(15.15 5.8)"/><path d="M10.05.5q1.05 1.45.95 2-.25 1-4.1-.75L1.6.15Q.6-.15 0-1.4l-.4-1.2 8.3 1.1q1.05.45 2.15 2" fill="#fff" fill-opacity=".851" fill-rule="evenodd" transform="translate(15.15 5.8)"/><path d="m-14.1 12.5 3.6-5.25q.55-.5 3.35-1.2Q-3.55 5.1.2 5.1 6 5.1 10 7.05l3.4 5.2" fill="none" stroke="#394200" stroke-linecap="round" stroke-linejoin="round" transform="translate(15.15 5.8)"/></g></defs></svg>

<?xml version="1.0" encoding="UTF-8" standalone="no"?>
<svg xmlns:xlink="http://www.w3.org/1999/xlink" height="58.65px" width="49.15px" xmlns="http://www.w3.org/2000/svg">
  <g transform="matrix(1.0, 0.0, 0.0, 1.0, 24.1, 18.1)">
    <use height="18.8" transform="matrix(1.0, 0.0, 0.0, 1.0, -15.15, -5.8)" width="30.3" xlink:href="#shape0"/>
  </g>
  <defs>
    <g id="shape0" transform="matrix(1.0, 0.0, 0.0, 1.0, 15.15, 5.8)">
      <path d="M13.4 11.25 Q13.55 9.3 13.35 7.3 L14.05 5.95 Q14.4 4.75 13.45 3.1 12.65 1.1 10.6 -1.7 9.7 -2.9 6.3 -3.85 2.95 -4.8 -0.3 -4.8 L-0.35 -4.7 -0.4 -4.8 Q-3.65 -4.8 -6.9 -3.85 -10.15 -2.95 -11.1 -1.7 -13.45 1.55 -13.8 3.8 -14.35 5.0 -14.05 5.95 L-13.85 6.45 -14.15 11.75" fill="none" stroke="#394200" stroke-linecap="round" stroke-linejoin="round" stroke-width="2.0"/>
      <path d="M-9.2 -1.6 L-9.8 -1.1 Q-10.7 -0.2 -11.3 1.1 L-11.5 1.75 Q-11.95 2.85 -11.6 3.3 L-9.2 2.4 -9.2 2.3 -6.65 1.45 Q-1.95 -0.1 -0.15 -0.15 L-0.05 -0.15 0.0 -0.15 Q1.8 -0.1 6.5 1.45 L9.35 2.4 9.45 2.6 10.45 2.7 11.0 2.75 11.1 2.75 11.15 2.75 11.2 2.75 11.35 2.75 11.3 2.65 11.4 2.5 11.5 2.15 Q11.4 1.05 10.55 0.0 L9.65 -1.1 Q7.15 -3.6 0.0 -3.6 L-0.15 -3.6 -0.35 -3.6 -5.25 -3.15 Q-7.85 -2.7 -9.05 -1.75 L-9.2 -1.6 M-13.75 3.8 L-13.4 2.55 Q-12.55 0.3 -11.1 -1.7 -10.15 -2.95 -6.9 -3.85 -3.65 -4.8 -0.4 -4.8 L-0.35 -4.7 -0.3 -4.8 Q2.95 -4.8 6.3 -3.85 9.7 -2.9 10.6 -1.7 13.6 2.35 13.95 4.0 14.2 5.4 12.65 5.1 3.5 2.5 0.05 2.25 -1.95 2.4 -6.1 3.45 L-12.65 5.1 Q-14.05 5.35 -13.75 3.8" fill="#ddff00" fill-rule="evenodd" stroke="none"/>
      <path d="M-11.5 1.75 L-11.3 1.1 Q-10.7 -0.2 -9.8 -1.1 L-9.2 -1.6 Q-10.45 -0.5 -11.25 1.1 L-11.5 1.75 M0.0 -3.6 Q7.15 -3.6 9.65 -1.1 L10.55 0.0 8.75 -1.75 Q7.4 -2.8 3.4 -3.3 L0.05 -3.55 0.0 -3.6 M11.4 2.5 L11.3 2.65 11.3 2.6 11.4 2.5" fill="#ffffff" fill-rule="evenodd" stroke="none"/>
      <path d="M11.3 2.65 L11.35 2.75 11.2 2.75 11.15 2.75 11.1 2.75 11.3 2.6 11.3 2.65 M11.0 2.75 L10.45 2.7 9.45 2.6 9.35 2.4 Q8.35 0.6 7.6 0.25 4.65 -1.1 -1.0 -1.1 -6.35 -1.1 -8.15 0.55 -9.25 1.55 -9.2 2.3 L-9.2 2.4 -11.6 3.3 -10.75 2.9 Q-9.05 -0.65 -7.9 -0.85 L-0.3 -2.1 -0.15 -2.1 0.0 -2.1 7.6 -0.85 Q9.6 -0.5 11.0 2.75 M10.45 2.7 L11.15 2.75 10.45 2.7" fill="#000000" fill-rule="evenodd" stroke="none"/>
      <path d="M13.25 7.45 L13.55 10.4 Q13.75 13.25 13.2 12.15 L9.35 7.4 10.35 7.05 12.8 7.75 13.25 7.45 M-10.6 7.15 L-9.95 7.4 -13.8 12.15 Q-14.35 13.25 -14.15 10.4 L-13.8 6.65 -12.8 7.75 -10.6 7.15" fill="#a0ba06" fill-rule="evenodd" stroke="none"/>
      <path d="M13.95 4.0 Q14.35 5.0 14.05 5.95 13.75 6.9 13.25 7.45 L12.8 7.75 10.35 7.05 Q4.55 5.2 0.2 5.1 L-0.2 5.1 Q-4.7 5.2 -10.3 7.05 L-10.55 7.15 -10.6 7.15 -12.8 7.75 -13.8 6.65 -14.05 5.95 Q-14.3 5.1 -13.85 3.95 L-13.75 3.8 Q-14.05 5.35 -12.65 5.1 L-6.1 3.45 Q-1.95 2.4 0.05 2.25 3.5 2.5 12.65 5.1 14.2 5.4 13.95 4.0" fill="#5f6e00" fill-rule="evenodd" stroke="none"/>
      <path d="M-9.2 -1.6 L-9.05 -1.75 Q-7.85 -2.7 -5.25 -3.15 L-0.35 -3.6 -0.15 -3.6 0.0 -3.6 0.05 -3.55 3.4 -3.3 Q7.4 -2.8 8.75 -1.75 L10.55 0.0 Q11.4 1.05 11.5 2.15 L11.4 2.5 11.3 2.6 11.1 2.75 11.0 2.75 Q9.6 -0.5 7.6 -0.85 L0.0 -2.1 -0.15 -2.1 -0.3 -2.1 -7.9 -0.85 Q-9.05 -0.65 -10.75 2.9 L-11.6 3.3 Q-11.95 2.85 -11.5 1.75 L-11.25 1.1 Q-10.45 -0.5 -9.2 -1.6" fill="#8ba100" fill-rule="evenodd" stroke="none"/>
      <path d="M9.35 2.4 L6.5 1.45 Q1.8 -0.1 0.0 -0.15 L-0.05 -0.15 -0.15 -0.15 Q-1.95 -0.1 -6.65 1.45 L-9.2 2.3 Q-9.25 1.55 -8.15 0.55 -6.35 -1.1 -1.0 -1.1 4.65 -1.1 7.6 0.25 8.35 0.6 9.35 2.4" fill="#4b4b4b" fill-rule="evenodd" stroke="none"/>
      <path d="M10.05 0.5 Q11.1 1.95 11.0 2.5 10.75 3.5 6.9 1.75 L1.6 0.15 Q0.6 -0.15 0.0 -1.4 L-0.4 -2.6 7.9 -1.5 Q8.95 -1.05 10.05 0.5" fill="#ffffff" fill-opacity="0.8509804" fill-rule="evenodd" stroke="none"/>
      <path d="M-14.1 12.5 L-10.5 7.25 Q-9.95 6.75 -7.15 6.05 -3.55 5.1 0.2 5.1 6.0 5.1 10.0 7.05 L13.4 12.25" fill="none" stroke="#394200" stroke-linecap="round" stroke-linejoin="round" stroke-width="1.0"/>
    </g>
  </defs>
</svg>
